ES2T1/53/aimg/i2-dialogo.svg

<svg clip-rule="evenodd" fill-rule="evenodd" stroke-miterlimit="10" viewBox="0 0 119 49" xmlns="http://www.w3.org/2000/svg"><g transform="translate(-10 -136)"><path d="m109.903 154.619h-7.233c1.34-4.346 4.327-8.188 8.274-10.461-7.526 1.849-14.642 5.351-20.698 10.188-.112.089-.224.181-.335.273h-60.232c-6.302 0-11.46 5.157-11.46 11.461 0 6.303 5.158 11.46 11.46 11.46h80.224c6.303 0 11.461-5.157 11.461-11.46 0-6.304-5.158-11.461-11.461-11.461z" fill="#fff" fill-rule="nonzero" stroke="#231f20" stroke-width="1.44"/><g fill="#231f20"><path d="m21.939 164.963h1.039v-1.251h-1.039zm0 5.872h1.039v-5.111h-1.039z" fill-rule="nonzero"/><path d="m25.866 167.264h3.041l.674 1.684h1.232l-2.878-7.122h-1.03l-2.926 7.122h1.232zm2.733-.915h-2.425l1.203-3.205z" fill-rule="nonzero"/><path d="m39.687 161.826h-1.001v2.743c-.211-.414-.866-1.011-1.934-1.011-1.492 0-2.666 1.136-2.666 2.763 0 1.511 1.039 2.781 2.685 2.781 1.078 0 1.665-.529 1.954-1.068v.914h.962zm-4.6 4.495c0-.982.731-1.829 1.838-1.829.51 0 .962.192 1.29.52.327.317.529.77.529 1.289.019.52-.173.982-.51 1.319-.327.337-.799.549-1.309.549-1.155 0-1.829-.876-1.838-1.839z" fill-rule="nonzero"/><path d="m40.717 166.33c0 1.405 1.03 2.763 2.791 2.763 1.762 0 2.792-1.358 2.792-2.763s-1.03-2.772-2.792-2.772c-1.761 0-2.791 1.367-2.791 2.763zm1.001 0c0-1.049.789-1.829 1.79-1.829s1.791.78 1.791 1.829-.79 1.829-1.791 1.829-1.79-.78-1.79-1.819z" fill-rule="nonzero"/><path d="m47.32 168.948h1.001v-2.83c0-1.039.491-1.559 1.434-1.559h.067v-1.001c-.712.01-1.26.308-1.559.924v-.77h-.943z" fill-rule="nonzero"/><path d="m50.554 168.948h1.001v-2.868c0-.424.087-.789.279-1.068.173-.289.52-.52.991-.511.491.01.799.212.992.52.173.289.221.607.212 1.04v2.887h1.01v-2.887c0-.443.029-.732.241-1.059.192-.318.568-.501 1.01-.501.472 0 .751.164.934.434.231.298.289.731.289 1.164v2.849h1.001v-2.887c0-1.001-.116-1.502-.578-1.973-.385-.395-.924-.53-1.405-.53-.568 0-1.049.212-1.386.549-.183.183-.289.366-.375.52-.058-.097-.202-.376-.337-.511-.366-.413-.866-.558-1.348-.558-.76 0-1.366.453-1.588.895v-.741h-.943z" fill-rule="nonzero"/><path d="m59.794 162.884h1.001v-1.058h-1.001zm0 6.064h1.001v-5.236h-1.001z" fill-rule="nonzero"/><path d="m62.104 168.948h1.001v-2.83c0-1.039.491-1.559 1.434-1.559h.067v-1.001c-.712.01-1.26.308-1.559.924v-.77h-.943z" fill-rule="nonzero"/><path d="m66.647 167.687h-1.059l-.606 1.993h.866z" fill-rule="nonzero"/><path d="m75.165 167.11c-.212.52-.76 1.049-1.636 1.059-1.001 0-1.79-.761-1.79-1.839 0-.529.202-1.02.51-1.328.365-.347.75-.52 1.28-.51.712 0 1.367.394 1.636 1.097h1.03c-.327-1.261-1.453-2.031-2.705-2.031-1.569 0-2.752 1.223-2.752 2.772 0 1.454 1.087 2.772 2.8 2.772 1.309 0 2.339-.856 2.657-1.992z" fill-rule="nonzero"/><path d="m77.119 168.948h1.001v-2.955c0-.356.096-.731.318-1.01.211-.279.577-.482 1.106-.482.52 0 .867.174 1.098.462.211.289.298.703.298 1.175v2.81h1.011v-2.858c0-.722-.125-1.348-.453-1.8-.337-.462-.856-.732-1.674-.732-.684-.009-1.396.27-1.704.886v-2.618h-1.001z" fill-rule="nonzero"/><path d="m83.24 162.884h1.001v-1.058h-1.001zm0 6.064h1.001v-5.236h-1.001z" fill-rule="nonzero"/><path d="m90.854 163.712h-.963v.895c-.279-.491-.895-1.049-1.954-1.049-1.559 0-2.685 1.194-2.685 2.83 0 1.473 1.059 2.714 2.628 2.714 1.116 0 1.742-.606 1.973-1.039v2.791h1.001zm-4.601 2.637c.01-.904.626-1.857 1.829-1.857.51 0 .972.202 1.309.539.327.337.529.799.51 1.309 0 .51-.202.972-.529 1.299-.328.327-.78.53-1.29.53-1.097 0-1.829-.867-1.829-1.81z" fill-rule="nonzero"/><path d="m96.985 163.712h-1.001v2.926c0 .895-.452 1.521-1.434 1.531-1.03 0-1.396-.674-1.396-1.617v-2.84h-1.001v3.071c0 1.087.433 2.31 2.118 2.319.933.01 1.52-.423 1.771-.962v.808h.943z" fill-rule="nonzero"/><path d="m98.294 162.884h1.001v-1.058h-1.001zm0 6.064h1.001v-5.236h-1.001z" fill-rule="nonzero"/><path d="m100.604 161.826h1.001v7.123h-1.001z"/><path d="m102.914 161.826h1.001v7.123h-1.001z"/><path d="m104.926 166.33c0 1.405 1.029 2.763 2.791 2.763 1.761 0 2.791-1.358 2.791-2.763s-1.03-2.772-2.791-2.772c-1.762 0-2.791 1.367-2.791 2.763zm1.001 0c0-1.049.789-1.829 1.79-1.829s1.79.78 1.79 1.829-.789 1.829-1.79 1.829-1.79-.78-1.79-1.819z" fill-rule="nonzero"/><path d="m114.83 165.079c-.077-1.165-1.021-1.521-1.742-1.521-.953 0-1.762.597-1.762 1.588.01.79.587 1.136 1.319 1.357.933.308 1.328.482 1.338 1.001 0 .443-.376.78-.857.78-.375 0-.885-.212-.924-.847h-.991c.048 1.194 1.078 1.665 1.905 1.665 1.04 0 1.887-.693 1.868-1.713-.029-1.126-.905-1.357-1.704-1.579-.558-.154-.934-.346-.953-.76-.009-.346.26-.674.751-.674.51-.009.76.299.76.703z" fill-rule="nonzero"/><path d="m117.323 161.826h-1.04v5.111h1.04zm0 5.871h-1.04v1.251h1.04z" fill-rule="nonzero"/></g></g></svg>

<?xml version="1.0" encoding="UTF-8" standalone="no"?>
<!DOCTYPE svg PUBLIC "-//W3C//DTD SVG 1.1//EN" "http://www.w3.org/Graphics/SVG/1.1/DTD/svg11.dtd">
<svg width="100%" height="100%" viewBox="0 0 119 49" version="1.1" xmlns="http://www.w3.org/2000/svg" xmlns:xlink="http://www.w3.org/1999/xlink" xml:space="preserve" xmlns:serif="http://www.serif.com/" style="fill-rule:evenodd;clip-rule:evenodd;stroke-miterlimit:10;">
    <g transform="matrix(1,0,0,1,-10,-136)">
        <g id="dialogo">
            <path d="M109.903,154.619L102.67,154.619C104.01,150.273 106.997,146.431 110.944,144.158C103.418,146.007 96.302,149.509 90.246,154.346C90.134,154.435 90.022,154.527 89.911,154.619L29.679,154.619C23.377,154.619 18.219,159.776 18.219,166.08C18.219,172.383 23.377,177.54 29.679,177.54L109.903,177.54C116.206,177.54 121.364,172.383 121.364,166.08C121.364,159.776 116.206,154.619 109.903,154.619Z" style="fill:white;fill-rule:nonzero;stroke:rgb(35,31,32);stroke-width:1.44px;"/>
            <g>
                <path d="M21.939,164.963L22.978,164.963L22.978,163.712L21.939,163.712L21.939,164.963ZM21.939,170.835L22.978,170.835L22.978,165.724L21.939,165.724L21.939,170.835Z" style="fill:rgb(35,31,32);fill-rule:nonzero;"/>
                <path d="M25.866,167.264L28.907,167.264L29.581,168.948L30.813,168.948L27.935,161.826L26.905,161.826L23.979,168.948L25.211,168.948L25.866,167.264ZM28.599,166.349L26.174,166.349L27.377,163.144L28.599,166.349Z" style="fill:rgb(35,31,32);fill-rule:nonzero;"/>
                <path d="M39.687,161.826L38.686,161.826L38.686,164.569C38.475,164.155 37.82,163.558 36.752,163.558C35.26,163.558 34.086,164.694 34.086,166.321C34.086,167.832 35.125,169.102 36.771,169.102C37.849,169.102 38.436,168.573 38.725,168.034L38.725,168.948L39.687,168.948L39.687,161.826ZM35.087,166.321C35.087,165.339 35.818,164.492 36.925,164.492C37.435,164.492 37.887,164.684 38.215,165.012C38.542,165.329 38.744,165.782 38.744,166.301C38.763,166.821 38.571,167.283 38.234,167.62C37.907,167.957 37.435,168.169 36.925,168.169C35.77,168.169 35.096,167.293 35.087,166.33L35.087,166.321Z" style="fill:rgb(35,31,32);fill-rule:nonzero;"/>
                <path d="M40.717,166.33C40.717,167.735 41.747,169.093 43.508,169.093C45.27,169.093 46.3,167.735 46.3,166.33C46.3,164.925 45.27,163.558 43.508,163.558C41.747,163.558 40.717,164.925 40.717,166.321L40.717,166.33ZM41.718,166.33C41.718,165.281 42.507,164.501 43.508,164.501C44.509,164.501 45.299,165.281 45.299,166.33C45.299,167.379 44.509,168.159 43.508,168.159C42.507,168.159 41.718,167.379 41.718,166.34L41.718,166.33Z" style="fill:rgb(35,31,32);fill-rule:nonzero;"/>
                <path d="M47.32,168.948L48.321,168.948L48.321,166.118C48.321,165.079 48.812,164.559 49.755,164.559L49.822,164.559L49.822,163.558C49.11,163.568 48.562,163.866 48.263,164.482L48.263,163.712L47.32,163.712L47.32,168.948Z" style="fill:rgb(35,31,32);fill-rule:nonzero;"/>
                <path d="M50.554,168.948L51.555,168.948L51.555,166.08C51.555,165.656 51.642,165.291 51.834,165.012C52.007,164.723 52.354,164.492 52.825,164.501C53.316,164.511 53.624,164.713 53.817,165.021C53.99,165.31 54.038,165.628 54.029,166.061L54.029,168.948L55.039,168.948L55.039,166.061C55.039,165.618 55.068,165.329 55.28,165.002C55.472,164.684 55.848,164.501 56.29,164.501C56.762,164.501 57.041,164.665 57.224,164.935C57.455,165.233 57.513,165.666 57.513,166.099L57.513,168.948L58.514,168.948L58.514,166.061C58.514,165.06 58.398,164.559 57.936,164.088C57.551,163.693 57.012,163.558 56.531,163.558C55.963,163.558 55.482,163.77 55.145,164.107C54.962,164.29 54.856,164.473 54.77,164.627C54.712,164.53 54.568,164.251 54.433,164.116C54.067,163.703 53.567,163.558 53.085,163.558C52.325,163.558 51.719,164.011 51.497,164.453L51.497,163.712L50.554,163.712L50.554,168.948Z" style="fill:rgb(35,31,32);fill-rule:nonzero;"/>
                <path d="M59.794,162.884L60.795,162.884L60.795,161.826L59.794,161.826L59.794,162.884ZM59.794,168.948L60.795,168.948L60.795,163.712L59.794,163.712L59.794,168.948Z" style="fill:rgb(35,31,32);fill-rule:nonzero;"/>
                <path d="M62.104,168.948L63.105,168.948L63.105,166.118C63.105,165.079 63.596,164.559 64.539,164.559L64.606,164.559L64.606,163.558C63.894,163.568 63.346,163.866 63.047,164.482L63.047,163.712L62.104,163.712L62.104,168.948Z" style="fill:rgb(35,31,32);fill-rule:nonzero;"/>
                <path d="M66.647,167.687L65.588,167.687L64.982,169.68L65.848,169.68L66.647,167.687Z" style="fill:rgb(35,31,32);fill-rule:nonzero;"/>
                <path d="M75.165,167.11C74.953,167.63 74.405,168.159 73.529,168.169C72.528,168.169 71.739,167.408 71.739,166.33C71.739,165.801 71.941,165.31 72.249,165.002C72.614,164.655 72.999,164.482 73.529,164.492C74.241,164.492 74.896,164.886 75.165,165.589L76.195,165.589C75.868,164.328 74.742,163.558 73.49,163.558C71.921,163.558 70.738,164.781 70.738,166.33C70.738,167.784 71.825,169.102 73.538,169.102C74.847,169.102 75.877,168.246 76.195,167.11L75.165,167.11Z" style="fill:rgb(35,31,32);fill-rule:nonzero;"/>
                <path d="M77.119,168.948L78.12,168.948L78.12,165.993C78.12,165.637 78.216,165.262 78.438,164.983C78.649,164.704 79.015,164.501 79.544,164.501C80.064,164.501 80.411,164.675 80.642,164.963C80.853,165.252 80.94,165.666 80.94,166.138L80.94,168.948L81.951,168.948L81.951,166.09C81.951,165.368 81.826,164.742 81.498,164.29C81.161,163.828 80.642,163.558 79.824,163.558C79.14,163.549 78.428,163.828 78.12,164.444L78.12,161.826L77.119,161.826L77.119,168.948Z" style="fill:rgb(35,31,32);fill-rule:nonzero;"/>
                <path d="M83.24,162.884L84.241,162.884L84.241,161.826L83.24,161.826L83.24,162.884ZM83.24,168.948L84.241,168.948L84.241,163.712L83.24,163.712L83.24,168.948Z" style="fill:rgb(35,31,32);fill-rule:nonzero;"/>
                <path d="M90.854,163.712L89.891,163.712L89.891,164.607C89.612,164.116 88.996,163.558 87.937,163.558C86.378,163.558 85.252,164.752 85.252,166.388C85.252,167.861 86.311,169.102 87.88,169.102C88.996,169.102 89.622,168.496 89.853,168.063L89.853,170.854L90.854,170.854L90.854,163.712ZM86.253,166.349C86.263,165.445 86.879,164.492 88.082,164.492C88.592,164.492 89.054,164.694 89.391,165.031C89.718,165.368 89.92,165.83 89.901,166.34C89.901,166.85 89.699,167.312 89.372,167.639C89.044,167.966 88.592,168.169 88.082,168.169C86.985,168.169 86.253,167.302 86.253,166.359L86.253,166.349Z" style="fill:rgb(35,31,32);fill-rule:nonzero;"/>
                <path d="M96.985,163.712L95.984,163.712L95.984,166.638C95.984,167.533 95.532,168.159 94.55,168.169C93.52,168.169 93.154,167.495 93.154,166.552L93.154,163.712L92.153,163.712L92.153,166.783C92.153,167.87 92.586,169.093 94.271,169.102C95.204,169.112 95.791,168.679 96.042,168.14L96.042,168.948L96.985,168.948L96.985,163.712Z" style="fill:rgb(35,31,32);fill-rule:nonzero;"/>
                <path d="M98.294,162.884L99.295,162.884L99.295,161.826L98.294,161.826L98.294,162.884ZM98.294,168.948L99.295,168.948L99.295,163.712L98.294,163.712L98.294,168.948Z" style="fill:rgb(35,31,32);fill-rule:nonzero;"/>
                <rect x="100.604" y="161.826" width="1.001" height="7.123" style="fill:rgb(35,31,32);"/>
                <rect x="102.914" y="161.826" width="1.001" height="7.123" style="fill:rgb(35,31,32);"/>
                <path d="M104.926,166.33C104.926,167.735 105.955,169.093 107.717,169.093C109.478,169.093 110.508,167.735 110.508,166.33C110.508,164.925 109.478,163.558 107.717,163.558C105.955,163.558 104.926,164.925 104.926,166.321L104.926,166.33ZM105.927,166.33C105.927,165.281 106.716,164.501 107.717,164.501C108.718,164.501 109.507,165.281 109.507,166.33C109.507,167.379 108.718,168.159 107.717,168.159C106.716,168.159 105.927,167.379 105.927,166.34L105.927,166.33Z" style="fill:rgb(35,31,32);fill-rule:nonzero;"/>
                <path d="M114.83,165.079C114.753,163.914 113.809,163.558 113.088,163.558C112.135,163.558 111.326,164.155 111.326,165.146C111.336,165.936 111.913,166.282 112.645,166.503C113.578,166.811 113.973,166.985 113.983,167.504C113.983,167.947 113.607,168.284 113.126,168.284C112.751,168.284 112.241,168.072 112.202,167.437L111.211,167.437C111.259,168.631 112.289,169.102 113.116,169.102C114.156,169.102 115.003,168.409 114.984,167.389C114.955,166.263 114.079,166.032 113.28,165.81C112.722,165.656 112.346,165.464 112.327,165.05C112.318,164.704 112.587,164.376 113.078,164.376C113.588,164.367 113.838,164.675 113.838,165.079L114.83,165.079Z" style="fill:rgb(35,31,32);fill-rule:nonzero;"/>
                <path d="M117.323,161.826L116.283,161.826L116.283,166.937L117.323,166.937L117.323,161.826ZM117.323,167.697L116.283,167.697L116.283,168.948L117.323,168.948L117.323,167.697Z" style="fill:rgb(35,31,32);fill-rule:nonzero;"/>
            </g>
        </g>
    </g>
</svg>
